icons/linear-ele-food-burger.svg

<svg xmlns="http://www.w3.org/2000/svg" width="32px" height="32px" viewBox="0 0 32 32" version="1.1">
    <title>linear-ele-food-burger</title>
    <g id="linear-ele-food-burger" stroke-width="1" fill-rule="evenodd">
        <path d="M16,3 C22.627417,3 28,8.372583 28,15 L27.9979313,15.1699754 C29.1642042,15.5812271 30,16.6930083 30,18 L30,20 C30,21.3967079 29.0455224,22.5704857 27.7532528,22.9046477 L26.4045315,26.9486833 C25.9961893,28.1737097 24.8497728,29 23.5584816,29 L8.44151844,29 C7.15022722,29 6.00381069,28.1737097 5.59546855,26.9486833 L4.24674718,22.9046477 C2.95447757,22.5704857 2,21.3967079 2,20 L2,18 C2,16.6930083 2.83579584,15.5812271 4.0020687,15.1699754 L4,15 C4,8.372583 9.372583,3 16,3 Z M25.612,23 L6.387,23 L7.49283514,26.3162278 C7.62894919,26.7245699 8.01108803,27 8.44151844,27 L23.5584816,27 C23.988912,27 24.3710508,26.7245699 24.5071649,26.3162278 L25.612,23 Z M27,17 L5,17 C4.44771525,17 4,17.4477153 4,18 L4,20 C4,20.5522847 4.44771525,21 5,21 L27,21 C27.5522847,21 28,20.5522847 28,20 L28,18 C28,17.4477153 27.5522847,17 27,17 Z M16,5 C10.4771525,5 6,9.4771525 6,15 L26,15 C26,9.4771525 21.5228475,5 16,5 Z" id="&#24418;&#29366;" fill-rule="nonzero" />
    </g>
</svg>

<svg xmlns="http://www.w3.org/2000/svg" viewBox="0 0 32 32"><path fill="currentColor" d="M16 3c6.627 0 12 5.373 12 12l-.002.17A3.001 3.001 0 0 1 30 18v2c0 1.397-.954 2.57-2.247 2.905l-1.348 4.044A3 3 0 0 1 23.558 29H8.442a3 3 0 0 1-2.847-2.051l-1.348-4.044A3.001 3.001 0 0 1 2 20v-2c0-1.307.836-2.419 2.002-2.83L4 15C4 8.373 9.373 3 16 3m9.612 20H6.387l1.106 3.316a1 1 0 0 0 .949.684h15.116a1 1 0 0 0 .95-.684zM27 17H5a1 1 0 0 0-1 1v2a1 1 0 0 0 1 1h22a1 1 0 0 0 1-1v-2a1 1 0 0 0-1-1M16 5C10.477 5 6 9.477 6 15h20c0-5.523-4.477-10-10-10"/></svg>
